X: 1
T: OVER LAND AND SEA -- JIG
C: J.Hand
B: Ryan's Mammoth Collection of Fiddle Tunes
R: jig
M: 6/8
L: 1/8
Z: Contributed 20010701011511 by John Chambers jmchambers:rcn.net
K: Dmix
ud \
| EDE  FDE | FDd BAF | B>EE E>FA | BEE  E2F \
| E>DE FDF | ABc dAF | A>DD D>ED | A>DD D2 :|
|: uA \
| def edB | AFA d2c | Bee BAF | Bee e2A \
| def edB | dAG FGE | DFA deg | fdd d2 :|
